clipboard-text-clock-outline.svg

<svg fill="currentColor" viewBox="0 0 24 24"><path d="M21 11.11V5a2 2 0 0 0-2-2h-4.18C14.4 1.84 13.3 1 12 1s-2.4.84-2.82 2H5c-1.1 0-2 .9-2 2v14a2 2 0 0 0 2 2h6.11c1.26 1.24 2.98 2 4.89 2 3.87 0 7-3.13 7-7 0-1.91-.76-3.63-2-4.89M12 3c.55 0 1 .45 1 1s-.45 1-1 1-1-.45-1-1 .45-1 1-1M5 19V5h2v2h10V5h2v4.68c-.91-.43-1.92-.68-3-.68H7v2h4.1c-.6.57-1.06 1.25-1.42 2H7v2h2.08c-.05.33-.08.66-.08 1 0 1.08.25 2.09.68 3zm11 2c-2.76 0-5-2.24-5-5s2.24-5 5-5 5 2.24 5 5-2.24 5-5 5m.5-4.75 2.86 1.69-.75 1.22L15 17v-5h1.5z"/></svg>

<svg  viewBox="0 0 24 24" fill="currentColor"><path  d="M21 11.11V5C21 3.9 20.11 3 19 3H14.82C14.4 1.84 13.3 1 12 1S9.6 1.84 9.18 3H5C3.9 3 3 3.9 3 5V19C3 20.11 3.9 21 5 21H11.11C12.37 22.24 14.09 23 16 23C19.87 23 23 19.87 23 16C23 14.09 22.24 12.37 21 11.11M12 3C12.55 3 13 3.45 13 4S12.55 5 12 5 11 4.55 11 4 11.45 3 12 3M5 19V5H7V7H17V5H19V9.68C18.09 9.25 17.08 9 16 9H7V11H11.1C10.5 11.57 10.04 12.25 9.68 13H7V15H9.08C9.03 15.33 9 15.66 9 16C9 17.08 9.25 18.09 9.68 19H5M16 21C13.24 21 11 18.76 11 16S13.24 11 16 11 21 13.24 21 16 18.76 21 16 21M16.5 16.25L19.36 17.94L18.61 19.16L15 17V12H16.5V16.25Z"/></svg>
